X: 32444
T: Pippa Sandford's
R: jig
M: 6/8
K: Dmajor
|:A|DED FEF|BAF EDE|FAB AFD|FED E2 F|
DED FED|FAB AdB|AFD EDB|ADD D2:|
|:A|BcB Bcd|cBA AFE|ABA Acd|ecA cBA|
FBB Bcd|cBA Bcd|edB AFD|EDD D2:|

